icons/evolvere-blue-folders-flat-vivid-dark-fallback/apps/64/user.svg

<?xml version="1.0" encoding="UTF-8" standalone="no"?>
<!-- Created with Inkscape (http://www.inkscape.org/) -->

<svg
   xmlns:dc="http://purl.org/dc/elements/1.1/"
   xmlns:cc="http://creativecommons.org/ns#"
   xmlns:rdf="http://www.w3.org/1999/02/22-rdf-syntax-ns#"
   xmlns:svg="http://www.w3.org/2000/svg"
   xmlns="http://www.w3.org/2000/svg"
   xmlns:sodipodi="http://sodipodi.sourceforge.net/DTD/sodipodi-0.dtd"
   xmlns:inkscape="http://www.inkscape.org/namespaces/inkscape"
   width="64"
   height="64"
   id="svg13094"
   version="1.1"
   inkscape:version="0.48.4 r9939"
   sodipodi:docname="user.svg">
  <sodipodi:namedview
     id="base"
     pagecolor="#ffffff"
     bordercolor="#666666"
     borderopacity="1.0"
     inkscape:pageopacity="0"
     inkscape:pageshadow="2"
     inkscape:zoom="11.313709"
     inkscape:cx="30.22206"
     inkscape:cy="31.419631"
     inkscape:document-units="px"
     inkscape:current-layer="svg13094"
     showgrid="true"
     inkscape:snap-bbox="true"
     inkscape:bbox-paths="true"
     inkscape:bbox-nodes="true"
     inkscape:snap-bbox-edge-midpoints="true"
     inkscape:snap-bbox-midpoints="true"
     inkscape:object-paths="true"
     inkscape:snap-intersection-paths="true"
     inkscape:object-nodes="true"
     inkscape:snap-smooth-nodes="true"
     inkscape:snap-midpoints="true"
     inkscape:snap-object-midpoints="true"
     inkscape:snap-center="true"
     showguides="true"
     inkscape:guide-bbox="true"
     inkscape:window-width="1920"
     inkscape:window-height="1025"
     inkscape:window-x="-2"
     inkscape:window-y="32"
     inkscape:window-maximized="1"
     inkscape:snap-global="false"
     fit-margin-top="0"
     fit-margin-left="0"
     fit-margin-right="0"
     fit-margin-bottom="0"
     showborder="true"
     inkscape:showpageshadow="false"
     inkscape:snap-page="true">
    <inkscape:grid
       type="xygrid"
       id="grid3075"
       empspacing="5"
       visible="true"
       enabled="true"
       snapvisiblegridlinesonly="true"
       originx="1.6362304e-08px"
       originy="18px" />
  </sodipodi:namedview>
  <defs
     id="defs13096">
    <linearGradient
       id="linearGradient5602">
      <stop
         id="stop5604"
         style="stop-color:#573cc8;stop-opacity:1;"
         offset="0" />
      <stop
         id="stop5606"
         style="stop-color:#5038a3;stop-opacity:1;"
         offset="1" />
    </linearGradient>
  </defs>
  <metadata
     id="metadata13099">
    <rdf:RDF>
      <cc:Work
         rdf:about="">
        <dc:format>image/svg+xml</dc:format>
        <dc:type
           rdf:resource="http://purl.org/dc/dcmitype/StillImage" />
        <dc:title />
      </cc:Work>
    </rdf:RDF>
  </metadata>
  <path
     inkscape:connector-curvature="0"
     style="color:#000000;fill:#5c3ed2;fill-opacity:1;fill-rule:nonzero;stroke:none;stroke-width:2.28571415000000000;marker:none;visibility:visible;display:inline;overflow:visible;enable-background:accumulate"
     d="m 0,4 0,30 0,28 2,2 30,0 30,0 2,-2 L 64,34 64,4 32,4 0,4 z"
     id="path6498" />
  <path
     inkscape:connector-curvature="0"
     style="color:#000000;fill:#a279ff;fill-opacity:1;fill-rule:nonzero;stroke:none;stroke-width:2.28571415;marker:none;visibility:visible;display:inline;overflow:visible;enable-background:accumulate"
     d="M 2,0 0,1 0,4 32,4 64,4 64,1 62,0 32,0 2,0 z"
     id="path6502" />
  <path
     inkscape:connector-curvature="0"
     style="fill:#b696ff;fill-opacity:1;fill-rule:nonzero"
     d="M 0,3 0,6 2,4 z"
     id="path4298"
     sodipodi:nodetypes="cccc" />
  <path
     d="M 64,6 62,4 64,3 z"
     id="path3028"
     style="fill:#7a58e5;fill-opacity:1"
     inkscape:connector-curvature="0" />
  <g
     id="g3043"
     inkscape:export-filename="folder.png"
     inkscape:export-xdpi="90"
     inkscape:export-ydpi="90"
     transform="translate(-0.62500009,0.082283)" />
  <g
     id="scalable"
     transform="matrix(1.0385892,0,0,1.0385892,1214.7222,1878.8121)"
     inkscape:label="#g3701"
     style="fill:#ffffff" />
  <path
     inkscape:connector-curvature="0"
     style="color:#000000;fill:#dddcef;fill-opacity:1;fill-rule:nonzero;stroke:none;stroke-width:1;marker:none;visibility:visible;display:inline;overflow:visible;enable-background:accumulate"
     d="m 31.999997,16 c -7.09023,0 -8.601458,5.201572 -8.442484,8.283192 l 0.238939,2.62832 c -1.983621,0.02395 -1.023274,5.359378 0.398229,5.176997 0.625792,2.265357 1.785215,3.697855 3.026551,4.778764 0.264834,1.755668 0.167022,2.988708 0.07966,4.539827 -4.846071,3.216168 -13.141603,3.837037 -13.141603,5.176996 0,3.070711 7.146907,5.415933 17.840722,5.415933 10.693729,0 17.840722,-2.34529 17.840722,-5.415933 0,-1.339838 -8.295553,-1.960825 -13.141603,-5.176996 -0.08665,-1.551123 -0.185163,-2.784299 0.07966,-4.539827 1.241203,-1.080891 2.400597,-2.513502 3.026551,-4.778764 1.421396,0.182485 2.381864,-5.151509 0.398229,-5.176997 l 0.238927,-2.62832 C 40.601519,21.20159 39.090155,16 31.999997,16 z"
     id="path3033-0" />
</svg>

<svg xmlns="http://www.w3.org/2000/svg" viewBox="0 0 64 64"><g color="#000"><path d="m0 4v30 28l2 2h30 30l2-2v-28-30h-32-32" fill="#5c3ed2"/><path d="m2 0l-2 1v3h32 32v-3l-2-1h-30-30" fill="#a279ff"/></g><path d="m0 3v3l2-2z" fill="#b696ff"/><path d="m64 6l-2-2 2-1z" fill="#7a58e5"/><path d="m32 16c-7.09 0-8.601 5.202-8.442 8.283l.239 2.628c-1.984.024-1.023 5.359.398 5.177.626 2.265 1.785 3.698 3.03 4.779.265 1.756.167 2.989.08 4.54-4.846 3.216-13.14 3.837-13.14 5.177 0 3.071 7.147 5.416 17.841 5.416 10.694 0 17.841-2.345 17.841-5.416 0-1.34-8.296-1.961-13.14-5.177-.087-1.551-.185-2.784.08-4.54 1.241-1.081 2.401-2.514 3.03-4.779 1.421.182 2.382-5.152.398-5.177l.239-2.628c.159-3.082-1.352-8.283-8.442-8.283" fill="#dddcef" color="#000"/></svg>
